app/assets/images/locator/texticon_scales.svg

<?xml version="1.0" encoding="UTF-8"?>
<svg width="40px" height="40px" viewBox="0 0 40 40" version="1.1" xmlns="http://www.w3.org/2000/svg" xmlns:xlink="http://www.w3.org/1999/xlink">
    <!-- Generator: Sketch 45.1 (43504) - http://www.bohemiancoding.com/sketch -->
    <title>texticon_scales</title>
    <desc>Created with Sketch.</desc>
    <defs>
        <polygon id="path-1" points="0.0168092809 0.053789699 0.0168092809 12.3172808 17.5194731 12.3172808 17.5194731 0.053789699 0.0168092809 0.053789699"></polygon>
        <polygon id="path-3" points="0.0168092809 22.4123746 0.0168092809 0.191625803 27.8101148 0.191625803 27.8101148 22.4123746"></polygon>
    </defs>
    <g id="LocatorMaps" stroke="none" stroke-width="1" fill="none" fill-rule="evenodd">
        <g id="PPPO_Location_Desktop" transform="translate(-478.000000, -470.000000)">
            <g id="Group-17" transform="translate(478.000000, 470.000000)">
                <circle id="Oval" fill="#F5A623" cx="19.737609" cy="19.737609" r="19.737609"></circle>
                <g id="noun_710090_white" transform="translate(5.805179, 8.127251)">
                    <g id="Group-3" transform="translate(0.000000, 5.883248)">
                        <mask id="mask-2" fill="white">
                            <use xlink:href="#path-1"></use>
                        </mask>
                        <g id="Clip-2"></g>
                        <path d="M2.56957875,10.1564477 C2.56957875,9.45578084 3.1534211,8.87165832 3.85436812,8.87165832 C4.55503498,8.87165832 5.13915749,9.45578084 5.13915749,10.1564477 C5.13915749,10.8573947 4.55503498,11.4412371 3.85436812,11.4412371 C3.1534211,11.4412371 2.59871483,10.8573947 2.56957875,10.1564477 Z M1.69353505,10.1275918 C1.69353505,11.3244126 2.65698701,12.2878645 3.85436812,12.2878645 C5.05146908,12.2878645 6.01492103,11.3244126 6.01492103,10.1275918 C6.01492103,8.93021065 5.05146908,7.9667587 3.85436812,7.9667587 C2.68640325,7.9667587 1.69353505,8.93021065 1.69353505,10.1275918 Z M12.4097318,10.1564477 C12.4097318,9.45578084 12.9935742,8.87165832 13.6945212,8.87165832 C14.395188,8.87165832 14.9793106,9.45578084 14.9793106,10.1564477 C14.9793106,10.8573947 14.395188,11.4412371 13.6945212,11.4412371 C12.9935742,11.4412371 12.4097318,10.8573947 12.4097318,10.1564477 Z M11.5336881,10.1564477 C11.5336881,11.3535487 12.4971401,12.3172808 13.6945212,12.3172808 C14.8916221,12.3172808 15.8553542,11.3244126 15.8553542,10.1275918 C15.8553542,8.93021065 14.8916221,7.9667587 13.6945212,7.9667587 C12.4971401,7.9667587 11.5336881,8.95934674 11.5336881,10.1564477 Z M0.817491363,6.33149582 L8.52594745,6.33149582 L8.52594745,0.053789699 L0.817491363,0.053789699 L0.817491363,6.33149582 Z M10.5116838,2.8567373 L15.3880562,2.8567373 L15.825938,6.09784681 L10.5116838,6.09784681 L10.5116838,2.8567373 Z M0,6.623417 L0,10.1858639 L1.43074996,10.1858639 L1.43074996,10.1564477 C1.43074996,8.78425006 2.5401625,7.67455737 3.88350421,7.67455737 C5.22656575,7.67455737 6.33625845,8.78425006 6.33625845,10.1564477 L6.33625845,10.1858639 L11.2417669,10.1858639 L11.2417669,10.1564477 C11.2417669,8.78425006 12.3511795,7.67455737 13.6945212,7.67455737 C15.0375827,7.67455737 16.1472754,8.78425006 16.1472754,10.1564477 L16.1472754,10.1858639 L17.052175,10.1858639 C17.3152403,10.1858639 17.5194731,9.98135102 17.5194731,9.71856593 L17.5194731,9.25154807 C17.5194731,8.98848283 17.3152403,8.78425006 17.052175,8.78425006 L17.1401436,8.78425006 L16.2640999,2.27261478 C16.2346837,2.06838202 16.059587,1.92242143 15.8553542,1.92242143 L9.98611365,1.92242143 C9.75246465,1.92242143 9.57736797,2.09751811 9.57736797,2.33116711 L9.57736797,6.623417 L0,6.623417 L0,6.623417 Z" id="Fill-1" fill="#FFFFFE" mask="url(#mask-2)"></path>
                    </g>
                    <path d="M20.8094552,2.68052 C21.061513,2.68052 21.2659529,2.88495985 21.2659529,3.13701767 C21.2659529,3.38907549 21.061513,3.59351534 20.8094552,3.59351534 C20.5573974,3.59351534 20.3529575,3.38907549 20.3529575,3.13701767 C20.3529575,2.88495985 20.5573974,2.68052 20.8094552,2.68052" id="Fill-4" fill="#FFFFFE"></path>
                    <path d="M19.887186,4.76038836 C20.1392438,4.76038836 20.3436836,4.96482821 20.3436836,5.21688603 C20.3436836,5.46894385 20.1392438,5.6733837 19.887186,5.6733837 C19.6351281,5.6733837 19.4306883,5.46894385 19.4306883,5.21688603 C19.4306883,4.96482821 19.6351281,4.76038836 19.887186,4.76038836" id="Fill-5" fill="#FFFFFE"></path>
                    <path d="M25.0596819,2.68080015 C25.3119151,2.68080015 25.5161795,2.88538227 25.5161795,3.13729782 C25.5161795,3.38921338 25.3119151,3.59379549 25.0596819,3.59379549 C24.8074486,3.59379549 24.6031842,3.38921338 24.6031842,3.13729782 C24.6031842,2.88538227 24.8074486,2.68080015 25.0596819,2.68080015" id="Fill-6" fill="#FFFFFE"></path>
                    <path d="M20.7122415,6.76797681 C20.9642993,6.76797681 21.1687392,6.97241666 21.1687392,7.22447448 C21.1687392,7.47653231 20.9642993,7.68097215 20.7122415,7.68097215 C20.4601837,7.68097215 20.2557438,7.47653231 20.2557438,7.22447448 C20.2557438,6.97241666 20.4601837,6.76797681 20.7122415,6.76797681" id="Fill-7" fill="#FFFFFE"></path>
                    <path d="M25.1412069,6.73603918 C25.3934401,6.73603918 25.5977046,6.94030362 25.5977046,7.19253685 C25.5977046,7.44477008 25.3934401,7.64903452 25.1412069,7.64903452 C24.8889737,7.64903452 24.6847092,7.44477008 24.6847092,7.19253685 C24.6847092,6.94030362 24.8889737,6.73603918 25.1412069,6.73603918" id="Fill-8" fill="#FFFFFE"></path>
                    <path d="M22.8842808,7.72582567 C23.1363386,7.72582567 23.3407784,7.93026552 23.3407784,8.18232334 C23.3407784,8.43438117 23.1363386,8.63882101 22.8842808,8.63882101 C22.6322229,8.63882101 22.4277831,8.43438117 22.4277831,8.18232334 C22.4277831,7.93026552 22.6322229,7.72582567 22.8842808,7.72582567" id="Fill-9" fill="#FFFFFE"></path>
                    <path d="M25.8595235,4.74441954 C26.1115813,4.74441954 26.3160212,4.94885939 26.3160212,5.20091721 C26.3160212,5.45297504 26.1115813,5.65741488 25.8595235,5.65741488 C25.6071482,5.65741488 25.4030258,5.45297504 25.4030258,5.20091721 C25.4030258,4.94885939 25.6071482,4.74441954 25.8595235,4.74441954" id="Fill-10" fill="#FFFFFE"></path>
                    <g id="Group-14">
                        <mask id="mask-4" fill="white">
                            <use xlink:href="#path-3"></use>
                        </mask>
                        <g id="Clip-12"></g>
                        <path d="M23.1365744,4.16590013 L23.1365744,1.8100794 L22.5244365,1.8100794 L22.5244365,4.16590013 C22.0974807,4.29645221 21.7867892,4.69343139 21.7867892,5.16325079 C21.7867892,5.73980913 22.2540872,6.20682699 22.8306455,6.20682699 C23.4069237,6.20682699 23.8739416,5.73980913 23.8739416,5.16325079 C23.8739416,4.69371155 23.5635302,4.29673236 23.1365744,4.16590013" id="Fill-11" fill="#FFFFFE" mask="url(#mask-4)"></path>
                        <path d="M22.8309257,9.16806198 C20.6266686,9.16806198 18.8336787,7.37507201 18.8336787,5.17137528 C18.8336787,2.96739839 20.6263885,1.17440843 22.8309257,1.17440843 C25.0346224,1.17440843 26.8278925,2.96739839 26.8278925,5.17137528 C26.8276124,7.37507201 25.0346224,9.16806198 22.8309257,9.16806198 Z M15.1460026,19.040713 L13.6272841,19.040713 L15.1460026,19.040713 Z M12.7271471,19.040713 L6.35895098,19.040713 L12.7271471,19.040713 Z M5.48178667,19.040713 L3.96334829,19.040713 L5.48178667,19.040713 Z M3.08618398,19.0409931 L0,19.0409931 L0,22.4123746 C0,22.4123746 21.2788687,22.4123746 21.3035224,22.4123746 C21.5548211,22.4123746 22.3398145,22.371472 22.8508167,21.8865242 C23.3545348,21.4088605 23.3632196,20.580163 23.3584569,20.3947006 L23.3584569,12.0390872 L24.7048803,12.0390872 L24.7048803,9.78328166 C26.5239247,9.04143206 27.8101148,7.25432534 27.8101148,5.17137528 C27.8101148,2.42557924 25.5761614,0.191625803 22.8309257,0.191625803 C20.0848495,0.191625803 17.8511762,2.42557924 17.8511762,5.17109513 C17.8511762,7.25404519 19.1373663,9.04115191 20.9566909,9.78300151 L20.9566909,12.038807 L22.3022738,12.038807 L22.3022738,20.4185137 C22.308157,20.6039761 22.2535269,20.996753 22.1240954,21.1194607 C21.9055748,21.3267752 21.4253896,21.3592731 21.2763473,21.3550708 L18.9252893,21.3547907 L18.9252893,19.0409931 L16.0228867,19.0409931 L3.08618398,19.0409931 Z" id="Fill-13" fill="#FFFFFE" mask="url(#mask-4)"></path>
                    </g>
                </g>
            </g>
        </g>
    </g>
</svg>

<svg width="40" height="40" viewBox="0 0 40 40" xmlns="http://www.w3.org/2000/svg" xmlns:xlink="http://www.w3.org/1999/xlink"><title>texticon_scales</title><defs><path id="a" d="M.017.054v12.263H17.52V.054H.016z"/><path id="c" d="M.017 22.412V.192H27.81v22.22z"/></defs><g fill="none" fill-rule="evenodd"><circle fill="#F5A623" cx="19.738" cy="19.738" r="19.738"/><g transform="translate(5.805 14.01)"><mask id="b" fill="#fff"><use xlink:href="#a"/></mask><path d="M2.57 10.156c0-.7.583-1.284 1.284-1.284.7 0 1.285.584 1.285 1.284 0 .7-.585 1.285-1.286 1.285-.7 0-1.255-.583-1.284-1.284zm-.876-.028c0 1.196.963 2.16 2.16 2.16s2.16-.964 2.16-2.16c0-1.198-.963-2.16-2.16-2.16-1.168 0-2.16.962-2.16 2.16zm10.716.028c0-.7.584-1.284 1.285-1.284.7 0 1.284.584 1.284 1.284 0 .7-.585 1.285-1.285 1.285s-1.285-.583-1.285-1.284zm-.876 0c0 1.198.963 2.16 2.16 2.16 1.198 0 2.16-.992 2.16-2.188 0-1.198-.962-2.16-2.16-2.16-1.197 0-2.16.99-2.16 2.188zM.817 6.33h7.71V.055H.816V6.33zm9.695-3.473h4.876l.438 3.24h-5.314v-3.24zM0 6.623v3.563h1.43v-.03c0-1.372 1.11-2.48 2.454-2.48 1.343 0 2.452 1.108 2.452 2.48v.03h4.906v-.03c0-1.372 1.11-2.48 2.453-2.48 1.343 0 2.452 1.108 2.452 2.48v.03h.905c.263 0 .467-.205.467-.467V9.25c0-.264-.205-.468-.468-.468h.088l-.876-6.51c-.03-.206-.204-.352-.41-.352H9.987c-.234 0-.41.176-.41.41v4.29H0z" fill="#FFFFFE" mask="url(#b)"/></g><path d="M26.615 10.808c.252 0 .456.204.456.456s-.203.457-.455.457-.457-.204-.457-.456.205-.456.457-.456M25.692 12.888c.252 0 .457.204.457.456s-.206.457-.458.457-.456-.204-.456-.456.204-.456.456-.456M30.865 10.808c.252 0 .456.205.456.457 0 .25-.203.456-.455.456s-.457-.204-.457-.455c0-.252.205-.457.457-.457M26.517 14.895c.252 0 .457.205.457.457s-.205.456-.457.456-.456-.204-.456-.456.205-.457.457-.457M30.946 14.863c.253 0 .457.205.457.457s-.204.456-.457.456c-.252 0-.456-.204-.456-.456s.204-.457.456-.457M28.69 15.853c.252 0 .456.205.456.457s-.204.456-.457.456-.457-.204-.457-.456.204-.457.456-.457M31.665 12.872c.252 0 .456.204.456.456s-.203.457-.455.457c-.253 0-.457-.205-.457-.457s.204-.456.457-.456" fill="#FFFFFE"/><g transform="translate(5.805 8.127)"><mask id="d" fill="#fff"><use xlink:href="#c"/></mask><path d="M23.137 4.166V1.81h-.613v2.356c-.427.13-.737.527-.737.997 0 .577.467 1.044 1.044 1.044s1.044-.467 1.044-1.044c0-.47-.31-.866-.737-.997" fill="#FFFFFE" mask="url(#d)"/><path d="M22.83 9.168c-2.203 0-3.996-1.793-3.996-3.997 0-2.203 1.792-3.996 3.997-3.996S26.83 2.967 26.83 5.17c0 2.205-1.793 3.998-3.997 3.998zm-7.684 9.873h-1.52 1.52zm-2.42 0H6.36h6.367zm-7.244 0h-1.52 1.52zm-2.396 0H0v3.372h21.304c.25 0 1.036-.04 1.547-.525.505-.478.513-1.307.508-1.492V12.04h1.347V9.782c1.82-.742 3.105-2.53 3.105-4.612 0-2.744-2.234-4.978-4.98-4.978-2.745 0-4.98 2.234-4.98 4.98 0 2.082 1.287 3.87 3.107 4.61v2.257h1.345v8.38c.006.184-.048.577-.178.7-.218.207-.7.24-.848.235h-2.35V19.04H3.085z" fill="#FFFFFE" mask="url(#d)"/></g></g></svg>
